public/svg/logo.svg

<svg width="149" height="128" viewBox="0 0 149 128" fill="none" xmlns="http://www.w3.org/2000/svg">
<path d="M86.3156 71.6393C80.7811 71.6393 75.3567 69.6143 71.27 65.5184L44.6241 38.8817C36.1117 30.3601 36.5332 16.0934 45.5679 7.0587C54.6025 -1.96681 68.8784 -2.39747 77.3908 6.11492L81.001 9.72513L78.7653 11.9609L75.1459 8.35068C67.8614 1.07529 55.6013 1.50595 47.8036 9.29447C40.0059 17.083 39.5936 29.3614 46.869 36.6367L73.5057 63.2735C80.7811 70.558 93.0412 70.1365 100.839 62.348C108.637 54.5503 109.067 42.272 101.773 34.9966L91.6026 24.8257C90.2923 23.5154 88.2856 22.6541 86.2331 22.5258C83.9698 22.3792 81.9906 23.1031 80.5429 24.5416L67.8705 37.214L65.6348 34.9783L78.3071 22.3059C80.4146 20.2076 83.3101 19.1538 86.4438 19.3646C89.2935 19.5478 91.9874 20.7207 93.8475 22.5899L104.018 32.7608C112.531 41.2824 112.118 55.5583 103.075 64.5929C98.4015 69.2752 92.299 71.6393 86.3156 71.6393Z" fill="white"/>
<path d="M86.2149 66.2513C81.725 66.2513 77.5925 64.5654 74.4955 61.4683L48.6742 35.647C42.0403 29.0131 42.3701 17.9075 49.3889 10.8796C56.4078 3.85156 67.5133 3.53086 74.1473 10.1648L77.391 13.4085L75.1552 15.6443L71.9115 12.4006C66.5145 7.00362 57.4157 7.33349 51.6247 13.1153C45.8337 18.9063 45.5222 28.0051 50.91 33.4021L76.7404 59.2234C79.3427 61.8256 82.8246 63.2551 86.6822 63.0718C90.5398 62.9527 94.205 61.3308 97.0272 58.5086C99.8494 55.6956 101.462 52.0213 101.59 48.1728C101.709 44.361 100.344 40.8241 97.7419 38.2218L89.99 30.4791C86.783 27.2629 85.152 27.208 82.1007 30.2684L71.5267 40.8516L69.2909 38.6067L79.865 28.0326C84.1899 23.7169 87.7634 23.781 92.235 28.2434L99.9777 35.9861C103.203 39.2114 104.898 43.5822 104.752 48.2736C104.605 52.9284 102.653 57.3724 99.263 60.7536C95.8727 64.1439 91.4378 66.0956 86.7738 66.233C86.5906 66.2513 86.3982 66.2513 86.2149 66.2513Z" fill="white"/>
<path d="M86.4993 61.2208C83.5213 61.2208 80.5983 60.1304 78.3901 57.9222L52.688 32.2201C48.1065 27.6386 48.3172 19.4835 53.1644 14.6455C58.0025 9.81661 65.846 9.41344 70.4275 13.9949L73.6253 17.202L71.3896 19.4469L68.1825 16.2399C64.8289 12.8954 59.0012 13.2985 55.4002 16.8996C51.79 20.5006 51.5792 26.649 54.9329 29.9935L80.635 55.7047C83.9703 59.0492 89.633 58.3437 93.2341 54.7426C94.9934 52.9925 96.0013 50.6926 96.0837 48.2919C96.1571 45.9278 95.534 43.5272 93.9304 41.9145L88.2128 36.1968C86.2702 34.2542 85.5463 34.2909 83.558 36.2792L75.2197 44.5992L72.9839 42.3635L81.5513 33.8144C85.2073 30.1584 86.6001 30.0851 90.4669 33.9519L96.1845 39.6695C98.4203 41.8961 99.3732 45.1398 99.2725 48.3927C99.1717 51.5997 97.8339 54.651 95.5065 56.9784C92.9592 59.4615 89.6972 61.2208 86.4993 61.2208Z" fill="white"/>
<path d="M51.234 49.3759L43.0176 57.6035L45.261 59.8437L53.4774 51.616L51.234 49.3759Z" fill="white"/>
<path d="M54.8747 53.0176L46.6553 61.2422L48.8976 63.4834L57.1171 55.2588L54.8747 53.0176Z" fill="white"/>
<path d="M58.5764 56.7613L50.3555 64.9844L52.5911 67.2193L60.8121 58.9963L58.5764 56.7613Z" fill="white"/>
<path d="M22.5042 105.781C19.5996 107.329 16.2917 108.145 12.6174 108.145C5.25954 108.145 0 103.151 0 95.6921C0 88.0319 5.25954 83.0381 12.6174 83.0381C16.2643 83.0381 19.5354 83.8169 22.0278 86.0435L18.894 89.2139C17.373 87.7295 15.0456 86.8865 12.6541 86.8865C7.72438 86.8865 4.4532 90.6617 4.4532 95.4264C4.4532 100.521 7.72438 104.305 12.6541 104.305C14.8165 104.305 16.7682 103.902 18.2526 103.059V97.4239H13.3596V93.5755H22.5042V105.781Z" fill="white"/>
<path d="M28.7715 83.6523H33.0231V103.692H43.1757V107.54H28.7715V83.6523Z" fill="white"/>
<path d="M58.5783 83.0379C66.037 82.9005 71.2965 87.8943 71.2965 95.5545C71.2965 103.013 66.037 108.007 58.5783 108.144C51.2205 108.144 45.9609 103.151 45.9609 95.692C45.9609 88.0317 51.2205 83.0379 58.5783 83.0379ZM58.615 104.296C63.5721 104.296 66.8525 100.512 66.8525 95.4171C66.8525 90.6615 63.5813 86.8772 58.615 86.8772C53.6853 86.8772 50.4141 90.6523 50.4141 95.4171C50.4141 100.521 53.6853 104.296 58.615 104.296Z" fill="white"/>
<path d="M76.7396 83.6523H85.0413C89.6319 83.6523 93.9477 85.1367 93.9477 90.5062C93.9477 93.9515 91.9593 96.4805 88.4132 96.9845L94.754 107.549H89.6228L84.0883 97.4243H80.9821V107.549H76.7305V83.6523H76.7396ZM84.2899 93.7682C86.6814 93.7682 89.4853 93.5667 89.4853 90.4604C89.4853 87.6291 86.8555 87.29 84.6564 87.29H80.9821V93.7682H84.2899Z" fill="white"/>
<path d="M108.856 83.6523H112.53L122.82 107.54H117.964L115.737 102.07H105.374L103.212 107.54H98.4561L108.856 83.6523ZM114.253 98.4322L110.579 88.7103L106.831 98.4322H114.253Z" fill="white"/>
<path d="M133.852 95.0505L125.89 83.6426H131.25L136.885 92.4848L142.456 83.6426H147.615L139.79 95.0505L148.458 107.54H143.061L136.748 97.4512L130.471 107.54H125.34L133.852 95.0505Z" fill="white"/>
<path d="M20.8178 119.442H23.9607C26.059 119.442 28.0107 120.725 28.0107 123.428C28.0107 126.15 25.7016 127.414 23.7866 127.414H20.8086V119.442H20.8178ZM23.2918 126.131C25.0694 126.131 26.5263 125.362 26.5263 123.428C26.5263 121.495 25.2618 120.725 23.53 120.725H22.238V126.131H23.2918Z" fill="white"/>
<path d="M31.6943 119.442H36.9722V120.725H33.1054V122.686H36.7615V123.969H33.1054V126.131H37.1738V127.414H31.6943V119.442Z" fill="white"/>
<path d="M40.1328 119.442H41.7638L43.9354 125.462L46.1804 119.442H47.7106L44.4944 127.414H43.2665L40.1328 119.442Z" fill="white"/>
<path d="M50.9551 119.442H56.233V120.725H52.3753V122.686H56.0314V123.969H52.3753V126.131H56.4437V127.414H50.9642V119.442H50.9551Z" fill="white"/>
<path d="M60.1816 119.442H61.6019V126.131H64.9922V127.414H60.1816V119.442Z" fill="white"/>
<path d="M71.9562 119.241C74.4485 119.195 76.1986 120.863 76.1986 123.419C76.1986 125.912 74.4393 127.579 71.9562 127.616C69.5005 127.616 67.7412 125.948 67.7412 123.456C67.7412 120.909 69.5005 119.241 71.9562 119.241ZM71.9653 126.333C73.6238 126.333 74.7142 125.069 74.7142 123.374C74.7142 121.788 73.6238 120.524 71.9653 120.524C70.3252 120.524 69.2256 121.788 69.2256 123.374C69.2256 125.078 70.3252 126.333 71.9653 126.333Z" fill="white"/>
<path d="M79.9004 119.442H82.5851C84.1245 119.442 85.5265 119.983 85.5265 121.751C85.5265 123.758 84.0329 124.115 82.3377 124.115H81.3207V127.414H79.9004V119.442ZM82.182 122.906C82.9883 122.906 84.0421 122.86 84.0421 121.779C84.0421 120.799 83.1074 120.661 82.3469 120.661H81.3298V122.906H82.182Z" fill="white"/>
<path d="M88.999 119.442H91.1615L93.2873 125.032L95.4406 119.442H97.5756V127.414H96.2286V120.789H96.2103L93.7913 127.414H92.8017L90.3826 120.789H90.3643V127.414H89.0174V119.442H88.999Z" fill="white"/>
<path d="M101.718 119.442H106.996V120.725H103.129V122.686H106.785V123.969H103.129V126.131H107.197V127.414H101.718V119.442Z" fill="white"/>
<path d="M110.944 119.442H112.823L116.69 125.362H116.708V119.442H118.128V127.414H116.323L112.383 121.302H112.365V127.414H110.944V119.442Z" fill="white"/>
<path d="M123.883 120.725H121.437V119.442H127.741V120.725H125.294V127.414H123.874V120.725H123.883Z" fill="white"/>
</svg>

<svg width="149" height="128" fill="none" xmlns="http://www.w3.org/2000/svg"><path d="M86.316 71.64c-5.535 0-10.96-2.026-15.046-6.122L44.624 38.882c-8.512-8.522-8.09-22.789.944-31.823 9.035-9.026 23.31-9.456 31.823-.944L81 9.725l-2.236 2.236-3.62-3.61C67.86 1.075 55.6 1.506 47.803 9.294c-7.798 7.789-8.21 20.067-.935 27.343l26.637 26.636c7.275 7.285 19.535 6.863 27.333-.925 7.798-7.798 8.228-20.076.934-27.351l-10.17-10.171c-1.31-1.31-3.317-2.172-5.37-2.3-2.263-.147-4.242.577-5.69 2.016L67.87 37.214l-2.236-2.236 12.672-12.672c2.108-2.098 5.003-3.152 8.137-2.941 2.85.183 5.543 1.356 7.403 3.225l10.171 10.17c8.513 8.522 8.1 22.798-.943 31.833-4.674 4.682-10.776 7.046-16.76 7.046z" fill="#fff"/><path d="M86.215 66.251c-4.49 0-8.623-1.686-11.72-4.783l-25.82-25.821c-6.635-6.634-6.305-17.74.714-24.767 7.019-7.028 18.124-7.35 24.758-.715l3.244 3.244-2.236 2.235-3.243-3.243c-5.398-5.397-14.496-5.068-20.287.714-5.791 5.791-6.103 14.89-.715 20.287l25.83 25.821c2.603 2.603 6.085 4.032 9.942 3.849 3.858-.12 7.523-1.741 10.345-4.563 2.822-2.813 4.435-6.488 4.563-10.336.119-3.812-1.246-7.349-3.848-9.951l-7.752-7.743c-3.207-3.216-4.838-3.271-7.89-.21L71.528 40.851l-2.236-2.245 10.574-10.574c4.325-4.316 7.898-4.252 12.37.21l7.743 7.743c3.225 3.225 4.92 7.596 4.774 12.288-.147 4.654-2.099 9.098-5.489 12.48-3.39 3.39-7.825 5.342-12.49 5.479-.182.018-.375.018-.558.018z" fill="#fff"/><path d="M86.5 61.22c-2.979 0-5.902-1.09-8.11-3.298L52.688 32.22c-4.582-4.581-4.37-12.736.476-17.575 4.838-4.828 12.682-5.232 17.263-.65l3.198 3.207-2.235 2.245-3.207-3.207C64.829 12.895 59 13.299 55.4 16.9c-3.61 3.6-3.82 9.749-.467 13.094l25.702 25.71c3.335 3.345 8.998 2.64 12.6-.961 1.758-1.75 2.766-4.05 2.849-6.451.073-2.364-.55-4.765-2.154-6.378l-5.717-5.717c-1.943-1.943-2.667-1.906-4.655.082L75.22 44.6l-2.236-2.235 8.567-8.55c3.656-3.656 5.05-3.729 8.916.138l5.718 5.718c2.235 2.226 3.188 5.47 3.087 8.723-.1 3.207-1.438 6.258-3.766 8.585-2.547 2.483-5.809 4.243-9.007 4.243zM51.234 49.376l-8.216 8.227 2.243 2.24 8.216-8.227-2.243-2.24zm3.641 3.642l-8.22 8.224 2.243 2.241 8.22-8.224-2.243-2.241zm3.701 3.743l-8.22 8.223 2.235 2.235 8.221-8.223-2.236-2.235zm-36.072 49.02c-2.904 1.548-6.212 2.364-9.887 2.364C5.26 108.145 0 103.151 0 95.692c0-7.66 5.26-12.654 12.617-12.654 3.647 0 6.918.779 9.41 3.005l-3.133 3.17c-1.521-1.483-3.848-2.326-6.24-2.326-4.93 0-8.2 3.775-8.2 8.54 0 5.094 3.27 8.878 8.2 8.878 2.162 0 4.114-.403 5.599-1.246v-5.635H13.36v-3.849h9.144v12.206zm6.267-22.129h4.252v20.04h10.153v3.848H28.77V83.652zm29.807-.614c7.459-.138 12.718 4.856 12.718 12.517 0 7.458-5.259 12.452-12.718 12.589-7.358 0-12.617-4.993-12.617-12.452 0-7.66 5.26-12.654 12.617-12.654zm.037 21.258c4.957 0 8.238-3.784 8.238-8.879 0-4.755-3.272-8.54-8.238-8.54-4.93 0-8.2 3.775-8.2 8.54 0 5.104 3.27 8.879 8.2 8.879zM76.74 83.652h8.301c4.59 0 8.907 1.485 8.907 6.854 0 3.445-1.989 5.975-5.535 6.478l6.341 10.565h-5.131l-5.535-10.125h-3.106v10.125h-4.251V83.652h.009zm7.55 10.116c2.391 0 5.195-.201 5.195-3.308 0-2.83-2.63-3.17-4.829-3.17h-3.674v6.478h3.308zm24.566-10.116h3.674l10.29 23.888h-4.856l-2.227-5.47h-10.363l-2.162 5.47h-4.756l10.4-23.888zm5.397 14.78l-3.674-9.722-3.748 9.722h7.422zm19.599-3.382l-7.962-11.407h5.36l5.635 8.842 5.571-8.842h5.159L139.79 95.05l8.668 12.49h-5.397l-6.313-10.089-6.277 10.089h-5.131l8.512-12.49zM20.818 119.442h3.143c2.098 0 4.05 1.283 4.05 3.986 0 2.722-2.31 3.986-4.224 3.986h-2.978v-7.972h.009zm2.474 6.689c1.777 0 3.234-.769 3.234-2.703 0-1.933-1.264-2.703-2.996-2.703h-1.292v5.406h1.054zm8.402-6.689h5.278v1.283h-3.867v1.961h3.657v1.283h-3.657v2.162h4.069v1.283h-5.48v-7.972zm8.439 0h1.63l2.172 6.02 2.245-6.02h1.53l-3.216 7.972h-1.227l-3.134-7.972zm10.822 0h5.278v1.283h-3.858v1.961h3.656v1.283h-3.656v2.162h4.069v1.283h-5.48v-7.972h-.009zm9.227 0h1.42v6.689h3.39v1.283h-4.81v-7.972zm11.774-.201c2.492-.046 4.243 1.622 4.243 4.178 0 2.493-1.76 4.16-4.243 4.197-2.456 0-4.215-1.668-4.215-4.16 0-2.547 1.76-4.215 4.215-4.215zm.01 7.092c1.658 0 2.748-1.264 2.748-2.959 0-1.586-1.09-2.85-2.749-2.85-1.64 0-2.74 1.264-2.74 2.85 0 1.704 1.1 2.959 2.74 2.959zm7.934-6.891h2.685c1.54 0 2.942.541 2.942 2.309 0 2.007-1.494 2.364-3.19 2.364h-1.016v3.299H79.9v-7.972zm2.282 3.464c.806 0 1.86-.046 1.86-1.127 0-.98-.935-1.118-1.695-1.118H81.33v2.245h.852zm6.817-3.464h2.163l2.125 5.59 2.154-5.59h2.135v7.972h-1.347v-6.625h-.019l-2.419 6.625h-.99l-2.418-6.625h-.019v6.625h-1.347v-7.972H89zm12.719 0h5.278v1.283h-3.867v1.961h3.656v1.283h-3.656v2.162h4.068v1.283h-5.479v-7.972zm9.226 0h1.879l3.867 5.92h.018v-5.92h1.42v7.972h-1.805l-3.94-6.112h-.018v6.112h-1.421v-7.972zm12.939 1.283h-2.446v-1.283h6.304v1.283h-2.447v6.689h-1.42v-6.689h.009z" fill="#fff"/></svg>
